X:1
T:Rosemonde (Rosamonde)
T:Rosemonde
T:Cécile Chaminade
T:Marc Constantin  (English words by Clifton Bingham)
T:(original title: "Rosamonde")
T:OpenScore (CC0)
T:OpenScore (CC0)
T:OpenScore (CC0)
T:OpenScore (CC0)
T:OpenScore (CC0)
T:OpenScore (CC0)
T:OpenScore (CC0)
C:Cécile Chaminade
Z:Marc Constantin  (English words by Clifton Bingham)
Z:OpenScore (CC0)
%%score ( 1 2 ) { ( 3 4 ) | ( 5 6 ) }
L:1/8
Q:1/4=70
M:4/4
K:C
V:1 treble nm="Voice"
V:2 treble 
V:3 treble nm="Piano"
V:4 treble 
V:5 bass 
V:6 bass 
V:1
"^Andante" z8 | z8 | z8 | z8 |!p! E2 E2 E2 E2 |!<(! E2 G A!<)! G4 |!f!!<(! (G2 e2)!<)! d c B A | %7
w: ||||Pour- quoi tar- de-|t'il à ve- nir|Quand _ je suis à l'at-|
w: ||||Comes he not, my|heart, tell me why,|Why so long is he de-|
 (G4 F2) z2 |!<(! F2 F!<)! d (!>!d2 F) z |!p! E2 E c (!>!c2 C2) |!<(! (DE) G!<)! F!f! (E2 D) C | %11
w: ten- dre,|Craint- il, hé- las! _|mon re- gard ten- dre|Et _ mon pre- mier _ sou-|
w: lay- ing!|Ah, does he fear to|list to my pray- ing,|To _ hear my ten- * der|
 C2 z2 z4 |!p!!<(! E2 ^F2 G2!<)! A2 | B3 A G z D2 | E z!<(! ^F2 G2!<)! A2 | B3 A G4 | %16
w: pir!|Dieu qui dai- gnez|nous bé- nir, Pi-|tié, pi- tié pour|mon mar- tyr!|
w: sigh!|Heav'n, that deigns to|watch a- bove, O|pit- y me, be-|cause I love!|
!f! G2 (AB) d2"^dim." (BA) |!>(! G2 A!>)! B!p! !breath!d2 (BG) | E2 (^FG) A3 B | G4- G2 z2 | %20
w: O Dieu * qui dai- *|gnez nous bé- nir Pi- *|tié pour * mon mar-|tyr! *|
w: Heav'n, th- at deigns to- *|watch a- * bove, O- *|pit- y, * for I|love! *|
!mf! (=F2 E2 D2 C2) | F2 E E (D2 C2) | A2 G2 E2 D C | (D3 E) D2 z2 |!p! (_B2 A2 G2 F2) | %25
w: Ou- bli- ant les|tra- vaux du jour, _|Au vil- lage on som-|meil- * le,|Quand moi seu- le‿i-|
w: Rest- ing from the|la- bor of day, _|All the world lies in|slum- ber deep,|I a- lone here|
"^cresc." (_B2 A2 (G2 F2)) |!f! (c2 A2) F2 (ED) |!>(! E3 F!>)! !breath!E3!p! E | %28
w: ci je veil- le|Con- * dui- te _|par l'a- mour! Faut-|
w: vi- gil keep, _|Wai- ting one still *|far a- way! Ah,|
 E2 ^F2"^cresc." G2 A2 | B3 A (G2 D) z |"^cresc." E2 ^F2 G2 A2 | (B3 A) G4 | %32
w: il at- ten- dre|son re- tour _|Dans ce tris- te|sé- * jour!|
w: must I wait al-|way in vain _|Tho' my heart may|break for pain?|
!f!!<(! G2 A B!<)! d2 (BA) |"^dim." G2!>(! (AB)!>)!!p! d2 (BG) | E2 (^FG) A3 B | %35
w: Faut- il at- ten- dre _|son re- * tour Dans *|ce tris- * te sé-|
w: Ah, must I wait al- *|way in _ vain, Tho' my|heart may * break for|
 !breath!G2!p! (G2- GA=FG |!p! E) z E2 E2 E2 | E2!<(! G A!<)! G4 |!mf! (G2 e2) (dc) B A | %39
w: jour! Ah! _ _ _ _|_ des lar- mes|voi- lent mes yeux!|m'est- * il _ in- fi-|
w: pain? Ah! _ _ _ _|_ mine eyes are|blind- ed with fears,|Shall I faith- * less _|
 (G4 F2) z2 |!<(! F2 F!<)! d (!>!d2 F2) |!p! E2 E c (!>!c2 C2) |"^cresc." (DE) G F!f! (E2 D) C | %43
w: dè- le!|Peut ê- tre hé- las|une au- tre bel- le|É- * cou- te ses _ a-|
w: fear him;|Is there one fair- er,|dear- er, a- near him,|One * who his vows _ now|
 C2 z2!p! C2 C C | F4"^cresc." E2 E E | A4!<(! (G2 (AB))!<)! |!>(! c2 G2 (G!>)!F) E2 | %47
w: veux? Ah! si là-|haut l'on ai- me|mieux, Je _ _|veux mon- ter _ aux|
w: hears? Ah, if they|love tru- ly a-|bove, Let me *|die then, for _ I|
 D2 z2!p! G2 G G |"^cresc." c4 c2 c c |!f! c4!<(! (A2 B2) | (c!<)!G)!p! (AF) E2{DE} D2 | %51
w: cieux; Ah! si la-|haut l'on ai- me|mieux, Je _|veux * mon- * ter aux|
w: love; Ah! if they|love tru- ly a-|bove, Let me|die, * then, * for I|
 C4-"^poco slargando" C2 z2 | C4 C3 C |!pp! !fermata!c8 |] %54
w: cieux, _|mon- ter aux|cieux!|
w: love, _|I love, I|love!|
V:2
 x8 | x8 | x8 | x8 | x8 | x8 | G2 e2 x4 | x8 | x6 F x | x8 | x8 | x8 | x8 | x8 | E2 x6 | x8 | x8 | %17
 x2 (AB) d2 x2 | x8 | x8 | x8 | x8 | x8 | x8 | x8 | x4 G2 F2 | c2 A2 x4 | x8 | x8 | x8 | x8 | %31
 B3 A x4 | x8 | x6 B G | x8 | x8 | x8 | x8 | G2 e2 x2 (BA) | x8 | x8 | x8 | x8 | x8 | x8 | x8 | %46
 x8 | x8 | x8 | x4 A2 B2 | x8 | x8 | x8 | x8 |] %54
V:3
"_marcato assai" !>!G,2 !>!A,2 !>!B,2"_cresc." !>!C2 | !>!D2 !>!E2 !>![CF]3[I:staff +1] [C,A,C] | %2
[I:staff -1] ([^G,=B,D]2 [G,B,E]2 =GFED) | (C4- C3 [=F,=B,D]) | [E,CE]2 [^G,CE]2 [A,CE]2 [_A,CE]2 | %5
!<(! [=G,CE]2 [G,^A,E]2 [G,B,F]2!<)! [G,B,F]2 | ([G,CE]2"_cresc." [EG]2 [E^G]2 [EA]2 | %7
 [E=G_B]2 [EGB]2 [FA]2 [FA]2) | ([A,DFA]2 [_A,DF_A]2 [G,DFG]2 [G,DFG]2) | %9
 [G,CEG]2!p!!>(! [^G,DE^G]2 [A,CEA]2!>)! [A,CEA]2 | %10
"_cresc." !>![A,CFA]2 !>![A,CFA]2!f! !>![A,CFA]2 !>![B,FGB]2 | %11
 !>![CEGc]2!>(! (!>![ce]2 [Gd][Ec] [EG]!>)![DF]) |!p! [CE]2 [CE]2 [G,C_E]2 [G,CE]2 | %13
 [^F,CD]2 [F,A,D]2 [G,D]2 [G,B,G]2 | [G,CE]2 [G,CE]2 [A,CE]2 [A,CE]2 | %15
 ([^F,B,^D]2 [A,B,^F]2 [G,B,E]2) [G,B,E]2 |!mf! [G,B,G]2 [G,B,G]2 [G,=DG]2"_dim." [G,DG]2 | %17
 [G,B,G]2 [G,B,G]2 [G,B,G]2 [G,B,D]2 | ([G,CE]2 [G,C_E]2 [G,CD]2 [^F,CD]2) | %19
 [G,B,DG]2 [G,CG]2 [G,DG]2 [G,=EG]2 | [CF]2 [CE]2 G4 | [CF]2 [CE]2 G4 | %22
 ([A,CE]2 [A,DF]2 [CE]2 [CE]2) | [^F,CD^F]2 [F,CDF]2 [G,B,DG]2 G2 | %24
!p! ([DE_B]2 [CEA]2 [CEG]2 [CF]2) |"_cresc." ([F_B]2 [FA]2 [CEG]2 [CF]2) | %26
!f! [CFA]2 [CFA]2 [DFA]2 [DFA]2 |!>(! ([B,E^G]2 [B,EG]2 [B,EG]2!>)! [B,EG]2) | %28
!p! [CE]2 [CE]2"_cresc." [C_E]2 [CE]2 | ([^F,CD]2 [F,A,D]2 [G,D]2 [G,B,G]2) | %30
"_cresc." [G,CE]2 [G,CE]2 [A,CE]2 [A,CE]2 | ([^F,B,^D]2 [A,B,^F]2 [G,B,E]2 [G,B,E]2) | %32
!f! [G,B,G]2 [G,B,G]2!>(! [G,=DG]2!>)! [G,DG]2 |"_dim." [G,B,G]2 [G,B,G]2 [G,B,G]2 [G,B,D]2 | %34
 ([G,CE]2 [G,C_E]2 [G,CD]2 [^F,CD]2) |"_dim." [G,B,G]2 [G,CG]2 [G,^CG]2 [_A,D=F]2 | %36
 [G,=CE]2 [^G,CE]2 [=A,CE]2 [_A,CE]2 |!<(! ([G,CE]2 [G,^A,E]2 [G,B,F]2!<)! [G,B,F]2) | %38
 ([G,CE]2"_cresc." [EG]2 [E^G]2 [EA]2) | [E=G_B]2 [EGB]2 [FA]2 [FA]2 | %40
!<(! ([A,DFA]2 [_A,DF_A]2!<)! [G,DFG]2 [G,DFG]2) | %41
!p! ([G,CEG]2!>(! [^G,DE^G]2 [A,CEA]2!>)! [A,CEA]2) | %42
"_cresc." !>![A,CFA]2 !>![A,CFA]2 !>![A,CFA]2 !>![B,FGB]2 | !>![CEGc]2 [Cc]2!p! [_Bc]2 [Bc]2 | %44
 [Ac]2 [Ac]2"_cresc." [G_Bc]2 [GBc]2 | [FAc]2 [FAc]2!>(! [CG]2 ([C^FA]!>)![B,=FG]) | %46
 [CEG]2 [G,CG]2 (GF) [G,CE]2 | [G,CD]2 [G,B,D]2!p! [EG]2 [EG]2 | %48
"_cresc." [^Fc]2 [Fc]2 [=Fcd]2 [Fcd]2 | [Gcg]2 [Gcg]2 ([CDA]2 [B,D_A]2 | %50
 [CG]2)!p!!>(! [=A,F][F,D]!>)! C2 x2 |[I:staff +1] [C,E,C]2 [C,F,C]2 [C,G,C]2 [C,A,C]2 | %52
"^colla voce." [C,G,C]2 [C,A,C]2 [C,G,C]2 [C,F,C]2 | %53
"_lento""_m. g."!ped!{!fermata!C,,,!fermata!C,,!fermata!G,,!fermata!C,!fermata!G,}[I:staff -1] !fermata!E8!ped-up! |] %54
V:4
 G,2- G,^F,- F,=F,- F,[I:staff +1]E, |[I:staff -1] CB,- B,_B,- B,(A,/G,/ A,) x | x4 [A,D]4 | %3
 ^F,2 G,2 _B,_A, G,2 | x8 | x8 | x8 | x8 | x8 | x8 | x8 | x8 | x8 | x8 | x8 | x8 | x8 | x8 | x8 | %19
 x8 | x4 !arpeggio![G,B,D]2 [G,C]2 | x4 !arpeggio![G,B,D]2 [G,C]2 | x8 | x8 | x8 | x8 | x8 | x8 | %28
 x8 | x8 | x8 | x8 | x8 | x8 | x8 | x8 | x8 | x8 | x8 | x8 | x8 | x8 | x8 | x8 | x8 | x8 | %46
 x4 [G,B,]2 x2 | x8 | x8 | x8 | x8 | x8 | x8 | x8 |] %54
V:5
 z4 z2 C,2 |!f! G,,2- [C,,G,,]2 [F,,,C,,]3 [F,,,F,,] | (F,2 E,2 D,2 E,F,) | _E,4 (G,=F, =E,D,) | %4
!p! [C,,C,]8- | [C,,C,]2 (^C,2 D,2 G,,2) |!f! ([=C,,=C,]2 [C,G,]2 [C,^G,]2 [C,A,]2) | %7
 [^C,_B,]2 [C,B,]2 [D,A,]2 [D,A,]2 | [D,,D,]2 [=C,,=C,]2 [=B,,,=B,,]2 [B,,,B,,]2 | %9
!p! [C,,C,]2 [B,,,B,,]2 [A,,,A,,]2 [=G,,,=G,,]2 | %10
 !>![F,,,F,,]2 !>![D,,,D,,]2 !>![G,,,G,,]2 !>![G,,,G,,]2 | !>![C,,C,]2 [C,G,]2 [C,G,]2 [C,^G,]2 | %12
 [C,A,]8 | (D,2 C,2 B,,2 G,,2) | C,4 ^F,,4 | B,,4 E,,4 | [E,,E,]2 [E,,E,]2 [B,,,B,,]2 [B,,,B,,]2 | %17
 [E,,E,]2 [E,,E,]2!p! [D,,D,]2 [D,,D,]2 | [D,,D,]8 | ([G,,,G,,]2 [A,,,A,,]2 [B,,,B,,]2 [C,,C,]2) | %20
!mf! (A,2 G,2 F,2 E,2) | (A,2 G,2 F,2 E,2) | x2 G,,2 E,2 E,2 | [D,,D,]2 [D,,D,]2 [G,,,G,,]4 | %24
 C,4 (!arpeggio!_B,2 A,2 | D2 C2 [C,_B,]2 [F,A,]2) | [F,,F,]4 [=B,,,=B,,]4 | [E,,E,]8 | (A,4 G,4) | %29
 ([D,,D,]2 [C,,C,]2 [B,,,B,,]2 [G,,,G,,]2) | ([C,,C,]4 [^F,,,^F,,]4) | ([B,,,B,,]4 [E,,,E,,]4) | %32
 [E,,B,,E,]2 [E,,B,,E,]2 [B,,,B,,]2 [B,,,B,,]2 | [E,,B,,E,]2 [E,,B,,E,]2!p! [D,,D,]2 [D,,D,]2 | %34
 [D,,D,]8 |!p! ([G,,,G,,]2 [A,,,A,,]2 [^A,,,^A,,]2 [B,,,B,,]2) | [C,,,C,,]8 | %37
 ([C,,C,]2 [^C,,^C,]2 [D,,D,]2 [G,,,G,,]2) |!mf! ([=C,,=C,]2 [C,G,]2 [C,^G,]2 [C,A,]2) | %39
 [^C,_B,]2 [C,B,]2 [D,A,]2 [D,A,]2 | ([D,,D,]2 [=C,,=C,]2 [B,,,B,,]4) | %41
 ([C,,C,]2 [B,,,B,,]2 [A,,,A,,]2 [=G,,,=G,,]2) | %42
 (!>![F,,,F,,]2 !>![D,,,D,,]2!f! !>![G,,,G,,]2) !>![G,,,G,,]2 | !>![C,,C,]2 z2 [_B,C]2 [B,C]2 | %44
 [A,C]2 [A,C]2 [G,_B,C]2 [G,B,C]2 | [F,C]2 [F,C]2 E,2 (_E,D,) | %46
 C,2!p! [=E,,=E,]2 [D,,D,]2 [C,,C,]2 | [G,,,G,,]4 [_B,C]2 [B,C]2 | %48
 [A,_E]2 [A,E]2 [_A,CD]2 [A,CD]2 |!f! [=E,G,C]2 [E,G,C]2 ([^F,,^F,]2 [=F,,=F,]2 | %50
 [E,,E,]2) D,,F,, E,2 [D,F,G,B,]2 | ([C,,,C,,]2 [D,,,D,,]2 [E,,,E,,]2 [F,,,F,,]2) | %52
 ([E,,,E,,]2 [F,,,F,,]2 [E,,,E,,]2 [D,,,D,,]2) | x8 |] %54
V:6
 x8 | x8 | x8 | (_A,,2 G,,2 =F,,2 G,,2) | x8 | x8 | x8 | x8 | x8 | x8 | x8 | x8 | x8 | x8 | x8 | %15
 x8 | x8 | x8 | x8 | x8 | x4 G,,4 | x4 G,,4 | (D,,2 x2 C,,2) [A,,,A,,]2 | x8 | x4 F,,4 | x8 | x8 | %27
 x8 | x8 | x8 | x8 | x8 | x8 | x8 | x8 | x8 | x8 | x8 | x8 | x8 | x8 | x8 | x8 | x8 | x8 | x8 | %46
 x8 | x8 | x8 | x8 | x4 G,,2 [G,,,G,,]2 | x8 | x8 | x8 |] %54

